src/components/Icon/utils/svgsOptimized/paragraph-small.svg

<svg width="24" height="24" viewBox="0 0 24 24"  xmlns="http://www.w3.org/2000/svg">
<path d="M14.4704 8.46063C13.3204 6.99063 11.2204 7.14063 9.6904 7.29063C9.3104 7.33063 9.0004 7.50063 9.0004 7.96063V16.4806C9.0004 16.6606 9.1404 16.8006 9.3204 16.8006H10.2004C10.3804 16.8006 10.5204 16.6606 10.5204 16.4806V13.2606C11.9004 13.3906 13.4304 13.1706 14.3204 12.0306C15.0804 11.0006 15.3004 9.51063 14.4704 8.46063ZM10.5204 12.4606V8.18063C12.0004 8.01063 13.4704 8.51063 13.4704 10.2406C13.4704 11.9706 11.9504 12.6806 10.5204 12.4706V12.4606Z" />
</svg>

<?xml version="1.0" encoding="utf-8"?><svg width="24" height="24" xmlns="http://www.w3.org/2000/svg" viewBox="0 0 24 24"><path d="M14.47 8.46c-1.15-1.47-3.25-1.32-4.78-1.17-.38.04-.69.21-.69.67v8.52c0 .18.14.32.32.32h.88c.18 0 .32-.14.32-.32v-3.22c1.38.13 2.91-.09 3.8-1.23.76-1.03.98-2.52.15-3.57Zm-3.95 4V8.18c1.48-.17 2.95.33 2.95 2.06s-1.52 2.44-2.95 2.23v-.01Z"/></svg>
